public/img/social_media_icons/twitter.svg

<svg width="24px" height="18px" viewBox="0 0 24 18"  xmlns="http://www.w3.org/2000/svg" xmlns:xlink="http://www.w3.org/1999/xlink">
  <defs>
    <path d="M19.2,3.91789474 C19.1810526,3.91157895 19.1684211,3.89263158 19.1494737,3.88 C18.2526316,3.03368421 17.1978947,2.62947368 15.9852632,2.68 L15.9473684,2.59157895 C15.96,2.58526316 15.9663158,2.58526316 15.9726316,2.58526316 C17.0715789,2.32631579 17.7221053,2.06736842 17.9178947,1.78315789 C17.9873684,1.55578947 17.9052632,1.42947368 17.6652632,1.39789474 C17.1094737,1.46736842 16.5978947,1.58736842 16.1431579,1.77052632 C16.7242105,1.39789474 16.9452632,1.13263158 16.8189474,1 C16.2505263,1.01894737 15.6378947,1.30947368 14.9936842,1.88421053 C15.2336842,1.47368421 15.3221053,1.25263158 15.2589474,1.21473684 C14.9557895,1.42947368 14.6842105,1.65684211 14.4568421,1.90315789 C13.9705263,2.44631579 13.5789474,2.95157895 13.2821053,3.41263158 L13.2631579,3.45052632 C12.4926316,4.71368421 11.9557895,5.97684211 11.6336842,7.26526316 L11.5136842,7.36 L11.4884211,7.38526316 C11.0273684,6.79789474 10.4715789,6.31157895 9.80842105,5.91368421 C9.02526316,5.39578947 8.10315789,4.90947368 7.04210526,4.43578947 C5.88,3.83578947 4.70526316,3.33684211 3.51789474,2.94526316 C3.51157895,4.28421053 4.16210526,5.35157895 5.45684211,6.12842105 L5.45684211,6.15368421 C4.99578947,6.14105263 4.55368421,6.21684211 4.13052632,6.34947368 C4.21263158,7.59368421 5.09052632,8.44631579 6.74526316,8.92 L6.73894737,8.94526316 C6.08842105,8.90736842 5.55157895,9.13473684 5.13473684,9.60842105 C5.67789474,10.6821053 6.64421053,11.2 8.04,11.1557895 C7.76842105,11.3010526 7.54736842,11.4589474 7.40842105,11.6357895 C7.14947368,11.9010526 7.06736842,12.2168421 7.14947368,12.5831579 C7.45263158,13.1263158 7.98947368,13.3789474 8.78526316,13.3410526 L8.82947368,13.3978947 L8.80421053,13.4231579 C7.43368421,14.8442105 5.78526316,15.4884211 3.84631579,15.3494737 L3.81473684,15.3684211 C2.63368421,15.3621053 1.37052632,14.7873684 0,13.6505263 C1.37684211,15.6463158 3.20210526,17.0863158 5.46315789,17.9894737 C8.05263158,18.8484211 10.6357895,18.9115789 13.2189474,18.1726316 L13.2631579,18.1726316 C15.7705263,17.4463158 17.8926316,15.9494737 19.6484211,13.6884211 C20.4568421,12.5010526 20.9621053,11.3705263 21.1642105,10.2905263 C22.4715789,10.3347368 23.4189474,9.95578947 24,9.14736842 L23.9873684,9.12842105 C23.5515789,9.28 22.6989474,9.23578947 21.4357895,8.97684211 L21.4357895,8.83157895 C21.4357895,8.82526316 21.4357895,8.82526316 21.4421053,8.83157895 C22.8252632,8.67368421 23.64,8.22526316 23.9052632,7.48 C22.9389474,7.85894737 21.9852632,7.86526316 21.0442105,7.51157895 C20.8736842,6.19789474 19.2610526,5.00421053 18.2,3.91789474" id="twitter-path-1"></path>
  </defs>
  <g stroke="none" stroke-width="1" fill="none" fill-rule="evenodd">
    <g transform="translate(-928.000000, -139.000000)">
      <g transform="translate(-205.000000, -655.000000)">
        <g transform="translate(1133.000000, 793.000000)">
          <mask fill="white">
            <use xlink:href="#twitter-path-1"></use>
          </mask>
          <use fill="#D7D7DB" xlink:href="#twitter-path-1"></use>
        </g>
      </g>
    </g>
  </g>
</svg>

<svg width="24" height="18" xmlns="http://www.w3.org/2000/svg" xmlns:xlink="http://www.w3.org/1999/xlink"><defs><path d="M19.2 3.918c-.019-.006-.032-.025-.05-.038-.897-.846-1.952-1.25-3.165-1.2l-.038-.088c.013-.007.02-.007.026-.007 1.099-.259 1.75-.518 1.945-.802.07-.227-.013-.354-.253-.385-.556.07-1.067.19-1.522.373.581-.373.802-.638.676-.771-.568.019-1.181.31-1.825.884.24-.41.328-.631.265-.67a5.09 5.09 0 0 0-.802.69 12.262 12.262 0 0 0-1.175 1.509l-.019.038c-.77 1.263-1.307 2.526-1.63 3.814l-.12.095-.025.025a6.082 6.082 0 0 0-1.68-1.471c-.783-.518-1.705-1.005-2.766-1.478a24.22 24.22 0 0 0-3.524-1.49c-.006 1.338.644 2.406 1.939 3.182v.026a4.042 4.042 0 0 0-1.326.195c.082 1.245.96 2.097 2.614 2.571l-.006.025c-.65-.038-1.187.19-1.604.663.543 1.074 1.51 1.592 2.905 1.548-.272.145-.493.303-.632.48-.259.265-.34.58-.259.947.304.543.84.796 1.636.758l.044.057-.025.025c-1.37 1.421-3.019 2.065-4.958 1.926l-.031.02C2.634 15.361 1.37 14.786 0 13.65c1.377 1.995 3.202 3.435 5.463 4.338 2.59.86 5.173.923 7.756.184h.044c2.508-.727 4.63-2.224 6.385-4.485.809-1.187 1.314-2.317 1.516-3.397 1.308.044 2.255-.335 2.836-1.144l-.013-.019c-.435.152-1.288.108-2.551-.151v-.145c0-.007 0-.007.006 0 1.383-.158 2.198-.607 2.463-1.352-.966.379-1.92.385-2.86.032-.171-1.314-1.784-2.508-2.845-3.594" id="a"/></defs><use fill="#D7D7DB" xlink:href="#a" transform="translate(0 -1)" fill-rule="evenodd"/></svg>
